dist/img/Conference_bg.svg

<svg width="1920" height="778" fill="none" xmlns="http://www.w3.org/2000/svg"><g clip-path="url(#clip0_159_1027)"><path fill="#13191D" d="M0 0h1920v778H0z"/><path fill-rule="evenodd" clip-rule="evenodd" d="M1285 106h-85.1l-46.04 45.512h85.09v227.546H931V461h46.048v-36.417H1285V106zM931 288.047v45.516h262V197.028H977.048v-45.516h138.282L1161.37 106H931v136.535h215.95v45.512H931z" fill="#CA1217" fill-opacity=".2"/></g><defs><clipPath id="clip0_159_1027"><path fill="#fff" d="M0 0h1920v778H0z"/></clipPath></defs></svg>

<svg width="1920" height="778" viewBox="0 0 1920 778" fill="none" xmlns="http://www.w3.org/2000/svg">
<g clip-path="url(#clip0_159_1027)">
<rect width="1920" height="778" fill="#13191D"/>
<path fill-rule="evenodd" clip-rule="evenodd" d="M1285 106H1199.9L1153.86 151.512H1238.95V379.058H931V461H977.048V424.583H1285V106ZM931 288.047V333.563H1193V197.028H977.048V151.512H1115.33L1161.37 106H931V242.535H1146.95V288.047H931Z" fill="#CA1217" fill-opacity="0.2"/>
</g>
<defs>
<clipPath id="clip0_159_1027">
<rect width="1920" height="778" fill="white"/>
</clipPath>
</defs>
</svg>
